X: 17077
T: Hector MacKenzie's
R: jig
M: 6/8
K: Ddorian
cA|:Ddd def|ecc cde|Ddd def|fef gec|
Ddd def|ecc cde|afd gec|1 Ddd dcA:|2 Ddd dfg||
|:afd dfa|gec ceg|afd dfa|fef g2e|
afd dfa|gec ceg|afd gec|1 Ddd dfg:|2 Ddd d||

